!!!COA:	Josquin des Prez
!!!CDT:	~1450-1521/08/27
!!!OTL@@FRE: Se congi&eacute; prens/Recordans de my segnora
!!!AGN:	Chanson
!!!SCT:	NJE 28.31
!!!SCA:	New Josquin Edition 28.31
!!!voices:	4
**kern	**kern	**kern	**kern
*staff4	*staff3	*staff2	*staff1
*Ivox	*Ivox	*Ivox	*Ivox
*I"Bassus	*I"Tenor	*I"Altus	*I"Superius
*I'B	*I'T	*I'A	*I'S
*clefF4	*clefGv2	*clefGv2	*clefG2
*k[]	*k[b-]	*k[]	*k[b-]
*M2/1	*M2/1	*M2/1	*M2/1
*met(C)	*met(C)	*met(C)	*met(C)
=1-	=1-	=1-	=1-
!	!	!	!LO:TX:Z=10:t=4-ex-2 canon (B-->T, A-->S, both at the upper fourth)
1r	0r	0r	0r
1D	.	.	.
=2	=2	=2	=2
2C/	1G	1r	0r
2C/	.	.	.
1D	2F/	1d	.
.	2F/	.	.
=3	=3	=3	=3
1E	1G	2c\	1g
.	.	2c\	.
1D	1A	1d	2f/
.	.	.	2f/
=4	=4	=4	=4
2r	1G	2r	1g
2G\	.	2e\	.
2F\	2r	4f\	2r
.	.	4e\	.
2A\	2c\	4d\	2a/
.	.	4c\	.
=5	=5	=5	=5
4G\	2B-\	2d\	4b-\
4F\	.	.	4a/
4E\	2d\	2d\	4g/
4D\	.	.	4f/
1E	4c\	1c	2g/
.	4B-\	.	.
.	4A/	.	2g/
.	4G/	.	.
=6	=6	=6	=6
1F	1A	1r	1f
2r	1B-	1f	1r
2D\	.	.	.
=7	=7	=7	=7
2G\	2r	2e\	1b-
2G\	2G/	2d\	.
2C/	2c\	1e	2a/
2C/	2c\	.	2g/
=8	=8	=8	=8
2F\	2F/	2c\	1a
2F\	2F/	1f	.
2D\	2B-\	.	2f/
[2G\	2B-\	[2e\	[2b-\
=9	=9	=9	=9
4G\]	2G/	4e\]	2b-\]
4F\	.	4d\	.
4E\	2.c\	1d	2.a/
4D\	.	.	.
1E	.	.	.
.	4B-\	.	4g/
.	4A/	2c#i\	[2g/
.	4G/	.	.
=10	=10	=10	=10
1D	1A	1d	2g/]
.	.	.	2f#i/
1r	1G	1r	1g
=11	=11	=11	=11
1D	1r	0r	0r
2C/	1G	.	.
2C/	.	.	.
=12	=12	=12	=12
1D	2F/	1d	1r
.	2F/	.	.
1E	1G	2c\	1g
.	.	2c\	.
=13	=13	=13	=13
1D	1A	1d	2f/
.	.	.	2f/
2r	1G	2r	1g
2G\	.	2e\	.
=14	=14	=14	=14
2F\	2r	4f\	2r
.	.	4e\	.
2A\	2c\	4d\	2a/
.	.	4c\	.
4G\	2B-\	2d\	4b-\
4F\	.	.	4a/
4E\	2d\	2d\	4g/
4D\	.	.	4f/
=15	=15	=15	=15
1E	4c\	1c	2g/
.	4B-\	.	.
.	4A/	.	2g/
.	4G/	.	.
1F	1A	1r	1f
=16	=16	=16	=16
2r	1B-	1f	1r
2D\	.	.	.
2G\	2r	2e\	1b-
2G\	2G/	2d\	.
=17	=17	=17	=17
2C/	2c\	1e	2a/
2C/	2c\	.	2g/
1F	2F/	2c\	1a
.	2F/	[2f\	.
=18	=18	=18	=18
2D\	2B-\	2f\]	2f/
2.G\	2B-\	2.e\	1b-
.	2G/	.	.
4F\	.	4d\	.
4E\	[2c\	[2d\	[2a/
4D\	.	.	.
=19	=19	=19	=19
1E	4c\]	2d\]	4a/]
.	4B-\	.	4g/
.	4A/	2c#i\	1g
.	4G/	.	.
1D	1A	1d	.
.	.	.	2f#i/
=20	=20	=20	=20
2r	1G	1r	1g
2G\	.	.	.
2A\	2r	1a	1r
2A\	2c\	.	.
=21	=21	=21	=21
2F\	2d\	2a\	1dd
2D\	2d\	2a\	.
2.G\	2B-\	1d	2dd\
.	2G/	.	2dd\
4F\	.	.	.
=22	=22	=22	=22
4E\	2.c\	2r	1g
4D\	.	.	.
2C/	.	2g\	.
.	4B-\	.	.
1F	4A/	2a\	2r
.	4G/	.	.
.	2F/	2a\	2cc\
=23	=23	=23	=23
2D\	1B-	2a\	2dd\
2E\	.	2g\	2dd\
1F	2G/	1f	2dd\
.	2A/	.	2cc\
=24	=24	=24	=24
1G	1B-	1r	1b-
2F\	1c	1f	1r
2A\	.	.	.
=25	=25	=25	=25
2G\	2B-\	2g\	1b-
2B-i\	2d\	2g\	.
2A\	2c\	[1a	2cc\
2A\	2e\	.	2cc\
=26	=26	=26	=26
1D	2d\	2a\]	1.dd
.	2d\	2f\	.
1G	1G	2.g\	.
.	.	.	2b-\
.	.	4f\	.
=27	=27	=27	=27
2.C/	1c	2e\	2.cc\
.	.	2d\	.
4D\	.	.	4b-\
2F\	2.F/	1c	2a/
2E\	.	.	2g/
.	4G/	.	.
=28	=28	=28	=28
1D	2B-\	1d	1f
.	2A/	.	.
1E	1G	2c\	1g
.	.	2c\	.
=29	=29	=29	=29
1D	1A	1d	2f/
.	.	.	2f/
2r	1G	2r	1g
2G\	.	2e\	.
=30	=30	=30	=30
2F\	2r	4f\	2r
.	.	4e\	.
2A\	2c\	4d\	2a/
.	.	4c\	.
4G\	2B-\	2d\	4b-\
4F\	.	.	4a/
4E\	2d\	2d\	4g/
4D\	.	.	4f/
=31	=31	=31	=31
1E	4c\	1c	2g/
.	4B-\	.	.
.	4A/	.	2g/
.	4G/	.	.
1F	1A	1r	1f
=32	=32	=32	=32
2r	1B-	1f	1r
2D\	.	.	.
2G\	2r	2e\	1b-
2G\	2G/	2d\	.
=33	=33	=33	=33
2C/	2c\	1e	2a/
2C/	2c\	.	2g/
2F\	2F/	2c\	1a
2F\	2F/	[2f\	.
=34	=34	=34	=34
2D\	1B-	2f\]	2f/
2.G\	.	2.e\	1b-
.	2G/	.	.
4F\	.	4d\	.
4E\	[2c\	[2d\	[2a/
4D\	.	.	.
=35	=35	=35	=35
1E	4c\]	2d\]	4a/]
.	4B-\	.	4g/
.	4A/	2c#i\	1g
.	4G/	.	.
1D	1A	[1dl	.
.	.	.	2f#i/
=36	=36	=36	=36
0Gl	0Gl	0d]	0gl
==	==	==	==
*-	*-	*-	*-
!!!RDF**kern: l=long note in original notation
!!!RDF**kern: i=editorial accidental
!!!ENC:	Jesse Rodin; Victoria Chang 2011/10/21
!!!END:	2011/10/21/
!!!EED:	Jesse Rodin
!!!EEV:	2011/12/16/
!!attribution-level@Jos: 3 (tricky)
!!!ONB:	Translated from MusicXML and edited on 2011/12/16/ by Craig Sapp
!!muse2ps: C^@{COA}?\n@{SCT}^i2I150v90,90,90,150Q16
